X: 14029
T: Frankie Kennedy's
R: reel
M: 4/4
K: Adorian
|:Aeed ~e3f|gefd edBG|Aeed ~e3f|gefd B~A3|
Aeed ~e3f|g2fg efge|d2ef g3e|~e2ge B~A3||
Aeed ~e3f|(3gfefd edBG|Aeed ~e3f|g2fd B~A3|
Aeed ~e3f|gafg efge|d2ef g3e|~e2ge b~a3||
b2ef ~g3z|g2fg efg2|a~e3 ~g3e|~e2ge b~a3|
b2ef ~g3z|g2fg efge|d2ef g3e|~e2ge b~a3||
b2ef ~g3z|g2fg efg2|a~e3 geBe|geaf b~a3|
b2ef ~g3z|g2fg efge|d2ef g3e|1 ~e2ge B~A3:|2 ~e2ge BAGE|A8||

